packages/icons/src/components/Icon/assets/default/clickhouse.svg

<svg width="56" height="56" viewBox="0 0 56 56" fill="none" xmlns="http://www.w3.org/2000/svg">
<path d="M8.75301 4C9.07908 4 9.31215 4.23275 9.31219 4.55862V51.4402C9.31219 51.7657 9.07911 52 8.75301 52H4.55918C4.23299 52 4 51.7657 4 51.4402V4.55862C4.00004 4.23278 4.23301 4.00004 4.55918 4H8.75301Z" fill="black"/>
<path d="M19.4256 4C19.7518 4 19.9847 4.23275 19.9847 4.55862V51.4402C19.9847 51.7657 19.7518 52 19.4256 52H15.2317C14.9055 52 14.6725 51.7657 14.6725 51.4402V4.55862C14.6726 4.23275 14.9055 4 15.2317 4H19.4256Z" fill="black"/>
<path d="M30.0969 4C30.4231 4 30.6561 4.23275 30.6561 4.55862V51.4402C30.6561 51.7657 30.4232 52 30.0969 52H25.9031C25.5768 52 25.3439 51.7657 25.3439 51.4402V4.55862C25.3439 4.23275 25.5769 4 25.9031 4H30.0969Z" fill="black"/>
<path d="M40.7695 4C41.0957 4 41.3286 4.23275 41.3286 4.55862V51.4402C41.3286 51.7657 41.0957 52 40.7695 52H36.5756C36.2494 52 36.0164 51.7657 36.0164 51.4402V4.55862C36.0165 4.23278 36.2495 4.00004 36.5756 4H40.7695Z" fill="black"/>
<path d="M51.4408 22.6691C51.7669 22.6691 51.9998 22.901 52 23.2277V32.7723C51.9998 33.0976 51.7669 33.3309 51.4408 33.3309H47.247C46.9209 33.3309 46.688 33.0975 46.6878 32.7723V23.2277C46.688 22.901 46.9209 22.6691 47.247 22.6691H51.4408Z" fill="black"/>
</svg>

<svg xmlns="http://www.w3.org/2000/svg" width="56" height="56" fill="none" viewBox="0 0 56 56">
    <path fill="#000" d="M8.753 4a.54.54 0 0 1 .56.559V51.44a.54.54 0 0 1-.56.56H4.559A.54.54 0 0 1 4 51.44V4.56c0-.327.233-.56.56-.56zm10.673 0c.326 0 .559.233.559.559V51.44a.54.54 0 0 1-.56.56h-4.193a.54.54 0 0 1-.56-.56V4.56c0-.326.233-.559.56-.559zm10.671 0a.54.54 0 0 1 .56.559V51.44a.54.54 0 0 1-.56.56h-4.194a.54.54 0 0 1-.56-.56V4.56a.54.54 0 0 1 .56-.559zM40.77 4c.326 0 .559.233.559.559V51.44a.54.54 0 0 1-.56.56h-4.193a.54.54 0 0 1-.56-.56V4.56c0-.326.233-.559.56-.559zm10.67 18.67c.327 0 .56.231.56.558v9.544a.54.54 0 0 1-.56.559h-4.193a.54.54 0 0 1-.56-.559v-9.544a.54.54 0 0 1 .56-.559z"/>
</svg>
